hoodie_driver/public/prod.svg

<svg width="40" height="40" viewBox="0 0 40 40" fill="none" xmlns="http://www.w3.org/2000/svg">
<path d="M35.8316 18.3331C36.2916 18.3331 36.665 17.9597 36.665 17.4997V9.16637C36.665 8.70637 36.2916 8.33301 35.8316 8.33301C35.3716 8.33301 34.9983 8.70637 34.9983 9.16637V14.1664V17.4997C34.9984 17.9597 35.3716 18.3331 35.8316 18.3331Z" fill="#E0CC1B"/>
<path d="M4.99843 21.515V25.8334C4.99843 26.2934 5.37179 26.6667 5.83179 26.6667C6.29179 26.6667 6.66515 26.2934 6.66515 25.8334V21.5134C7.63351 21.1684 8.33179 20.2517 8.33179 19.1667V7.5C8.33179 6.12164 7.21015 5 5.83179 5C4.45343 5 3.33179 6.12164 3.33179 7.5V19.1666C3.33171 20.2516 4.03007 21.1684 4.99843 21.515Z" fill="#E0CC1B"/>
<path d="M37.4984 28.3334H35.8317C36.2917 28.3334 36.6651 27.96 36.6651 27.5C36.6651 27.04 36.2917 26.6666 35.8317 26.6666H34.6401C34.0667 25.5133 33.3317 22.3416 33.3317 20.8333C33.3317 20.2466 33.6101 19.5499 33.9317 18.7449C34.4067 17.5533 34.9984 16.0699 34.9984 14.1666C34.9984 10.8699 32.5784 8.7882 29.9984 8.41156V5.83336C29.9984 5.37336 29.625 5 29.165 5C28.705 5 28.3316 5.37336 28.3316 5.83336V8.36836C26.75 8.46836 24.0466 8.79172 21.1933 9.13336C17.6334 9.55836 13.9534 10 12.4984 10C12.0417 10 11.585 9.93 11.0634 9.77836C10.81 9.705 10.54 9.75672 10.3317 9.91336C10.1217 10.0717 9.99836 10.3184 9.99836 10.58V16.4334C9.99836 16.6967 10.1217 16.9434 10.3334 17.1C10.5417 17.2566 10.815 17.3034 11.0684 17.2316C12.2034 16.8966 13.6017 16.7183 15.1117 16.7183C19.0917 16.7183 22.9001 17.9033 24.3717 19.6016C24.8984 20.21 25.1067 20.8466 25.0067 21.5466C24.8584 22.5883 24.2784 25.115 22.2067 26.665H20.8334C20.3734 26.665 20 27.0384 20 27.4984C20 27.9584 20.3734 28.3317 20.8334 28.3317H2.5C1.12164 28.3334 0 29.4534 0 30.8334V32.5C0 33.8766 1.12164 35 2.5 35H37.5C38.8784 35 40 33.8784 40 32.5V30.8334C39.9984 29.455 38.8766 28.3334 37.4984 28.3334Z" fill="#E0CC1B"/>
</svg>

<svg xmlns="http://www.w3.org/2000/svg" width="40" height="40" fill="#e0cc1b" xmlns:v="https://vecta.io/nano"><path d="M35.832 18.333c.46 0 .833-.373.833-.833V9.166c0-.46-.373-.833-.833-.833s-.833.373-.833.833v5V17.5c0 .46.373.833.833.833zM4.998 21.515v4.318c0 .46.373.833.833.833s.833-.373.833-.833v-4.32c.968-.345 1.667-1.262 1.667-2.347V7.5c0-1.378-1.122-2.5-2.5-2.5s-2.5 1.122-2.5 2.5v11.667c0 1.085.698 2.002 1.667 2.348z"/><path d="M37.498 28.333h-1.667c.46 0 .833-.373.833-.833s-.373-.833-.833-.833H34.64c-.573-1.153-1.308-4.325-1.308-5.833 0-.587.278-1.283.6-2.088.475-1.192 1.067-2.675 1.067-4.578 0-3.297-2.42-5.378-5-5.755V5.833c0-.46-.373-.833-.833-.833s-.833.373-.833.833v2.535l-7.138.765-8.695.867c-.457 0-.913-.07-1.435-.222a.83.83 0 0 0-.732.135c-.21.158-.333.405-.333.667v5.853c0 .263.123.51.335.667s.482.203.735.132c1.135-.335 2.533-.513 4.043-.513 3.98 0 7.788 1.185 9.26 2.883.527.608.735 1.245.635 1.945-.148 1.042-.728 3.568-2.8 5.118h-1.373c-.46 0-.833.373-.833.833s.373.833.833.833H2.5c-1.378.002-2.5 1.122-2.5 2.502V32.5C0 33.877 1.122 35 2.5 35h35c1.378 0 2.5-1.122 2.5-2.5v-1.667c-.002-1.378-1.123-2.5-2.502-2.5z"/></svg>
